X:120
%%etbk:tnset id:42,pos:3,rep:3x,ant:
%%etbk:wsite http://www.thesession.org/tunes/display/514
%%etbk:video src:ytube,cde:yAkVrc5LjsI,desc:first tune
%%etbk:skill ?
%%etbk:pldat 2013-11-23T15:38,2013-05-21T16:08,2013-05-01T16:23
T: Down The Broom
Z: Piano Box Version by Martin Fleischmann
H: Created 2013-02-19 /  Last Modified 2013-02-19
M: 4/4
L: 1/8
R: reel
K: Ador
|: "am"!2!A2GA !2!A2!3!B!4!d | !2!e2 !4!gg !2!e!4!g!1!d!3!c | "G"!2!B!1!GG!2!F !3!G2G!2!E | !1!D2!2!B,!1!D !3!G!4!A!5!B!3!G|
"am"!1!E!2!A{c}AG A2Bd | !2!e2 !4!gg eg!1!d!4!g | "em"!1!e!3!g!2!g!3!g !3!gaba | !3!g!2!e!1!d!2!B "am"{d}B!1!AA2 :||
|: "am"!5!a2!2!e!5!a !3!a!2!g!1!e!2!g | !3!agbg ag!1!e!3!f | "G"!4!g2!2!d!4!g !1!B!4!g!2!d!4!g | !4!geaf gede |
"am"!5!a2!1!e!3!a {b}!3!ageg | !3!agbg ag!1!e!2!g | "em"!1!d!3!g!2!g!3!g !3!gaba | ge!1!d!2!B "am"{d}B!1!AA2 :||
